X: 1
T: the Sweetness of Mary
C: Joan McDonald Boes
S: Aly Bain (from a TV programme)
S: Phil Cunningham, Aly Bain "Another Gem"
Z: 2006 Nigel Gatherer, John Chambers
R: air
M: C
L: 1/8
K: G
   G>A \
| "G"B2 (3BAG "C"E2 (3EGA | "G"B<d "C"c<e "D"d2- (3def | "C(Em)"g>f e>d "G(Bm)"d>c B>c \
|1 "A(m)"d<g B<G "D7"A2 :|2 "G"d<g "D7"B<A "G"G2 |]
|: g>a \
| "G"b>d g<b "D"a>d f<a | "C(Em)"g>f e<g "G(Bm)"d2 c<B | "C(Am)"e>d c>e "G"d>c B>c \
|1 "A7"d<g B>G "D7"A2 :|2 "(G)"d<g "D7"B<A "G"G2 |]
